icons/show-derived-value-16.svg

<svg id="icons" xmlns="http://www.w3.org/2000/svg" viewBox="0 0 16 16"><defs><style>.cls-1{fill:none;}</style></defs><path d="M15,4H11V3h4.5a.5.5,0,0,1,.5.5v4a.5.5,0,0,1-.5.5H14.44409a8.2034,8.2034,0,0,0-2.1878-1H15ZM5.87891,4l-1-1H2.5a.5.5,0,0,0-.5.5v4a.5.5,0,0,0,.5.5H6.55786A8.14733,8.14733,0,0,1,8.742,7H3V4ZM5.61084,2.31787,8.293,5H6V6h4V2H9V4.293L6.31787,1.61084A5.46445,5.46445,0,0,0,2.42871,0H0V1H2.42871A4.47211,4.47211,0,0,1,5.61084,2.31787ZM5.16742,14H3V11h.548a1.48572,1.48572,0,0,1,.20691-.38574l.21387-.27588c.04175-.05426.14056-.17731.28064-.33838H2.5a.5.5,0,0,0-.5.5v4a.5.5,0,0,0,.5.5H6.45178A10.73125,10.73125,0,0,1,5.16742,14ZM16,11.63322l-.13818.17694C15.76611,11.93305,13.481,14.82,10.5,14.82c-2.98145,0-5.251-2.88788-5.3457-3.01077l-.21387-.276.21387-.276C5.249,11.13427,7.51855,8.24639,10.5,8.24639c2.981,0,5.26611,2.887,5.36182,3.00986L16,11.43318Zm-3.9917-.1a1.503,1.503,0,1,1-1.5-1.40863A1.45807,1.45807,0,0,1,12.0083,11.5332Zm3.06659.001c-.65057-.71647-2.474-2.48958-4.57538-2.48958-2.10034,0-3.91339,1.77408-4.55829,2.4886.6449.71446,2.45795,2.48855,4.55829,2.48855C12.6076,14.02175,14.42639,12.24961,15.07489,11.53418Z"/><rect class="cls-1" width="16" height="16"/></svg>

<svg xmlns="http://www.w3.org/2000/svg" viewBox="0 0 16 16"><path d="M15 4h-4V3h4.5a.5.5 0 0 1 .5.5v4a.5.5 0 0 1-.5.5h-1.056a8.203 8.203 0 0 0-2.188-1H15zM5.879 4l-1-1H2.5a.5.5 0 0 0-.5.5v4a.5.5 0 0 0 .5.5h4.058a8.147 8.147 0 0 1 2.184-1H3V4zM5.61 2.318L8.293 5H6v1h4V2H9v2.293L6.318 1.611A5.464 5.464 0 0 0 2.428 0H0v1h2.429A4.472 4.472 0 0 1 5.61 2.318zM5.167 14H3v-3h.548a1.486 1.486 0 0 1 .207-.386l.214-.276c.042-.054.14-.177.28-.338H2.5a.5.5 0 0 0-.5.5v4a.5.5 0 0 0 .5.5h3.952a10.731 10.731 0 0 1-1.285-1zM16 11.633l-.138.177c-.096.123-2.381 3.01-5.362 3.01-2.981 0-5.251-2.888-5.346-3.01l-.214-.277.214-.276c.095-.123 2.365-3.01 5.346-3.01s5.266 2.886 5.362 3.01l.138.176zm-3.992-.1a1.503 1.503 0 1 1-1.5-1.408 1.458 1.458 0 0 1 1.5 1.408zm3.067.001c-.65-.716-2.474-2.49-4.575-2.49-2.1 0-3.914 1.775-4.559 2.49.645.714 2.458 2.488 4.559 2.488 2.108 0 3.926-1.772 4.575-2.488z"/><path fill="none" d="M0 0h16v16H0z"/></svg>
